assets/img/post/protools.svg

<svg enable-background="new 0 0 150 150" viewBox="0 0 150 150" xmlns="http://www.w3.org/2000/svg"><g fill="#fff"><path d="m115.9 61.6c-8.2-14.3-17.6-30.6-40.9-30.6s-32.7 16.3-40.9 30.6c-7.4 12.9-15.1 26.1-33.4 35.1l10.9 22.3c25.1-12.3 36-31.2 43.9-45 8.4-14.5 11.4-18.2 19.5-18.2s11.1 3.7 19.5 18.2c8 13.8 18.8 32.6 43.9 45l10.9-22.3c-18.3-9-26-22.2-33.4-35.1z"/><path d="m75 148.3c-40.4 0-73.3-32.9-73.3-73.3s32.9-73.3 73.3-73.3 73.3 32.9 73.3 73.3-32.9 73.3-73.3 73.3zm0-138.8c-36.1 0-65.5 29.4-65.5 65.5s29.4 65.5 65.5 65.5 65.5-29.4 65.5-65.5-29.4-65.5-65.5-65.5z"/></g></svg>

<?xml version="1.0" encoding="utf-8"?>
<!-- Generator: Adobe Illustrator 21.1.0, SVG Export Plug-In . SVG Version: 6.00 Build 0)  -->
<svg version="1.1" id="Layer_1" xmlns="http://www.w3.org/2000/svg" xmlns:xlink="http://www.w3.org/1999/xlink" x="0px" y="0px"
	 viewBox="0 0 150 150" enable-background="new 0 0 150 150" xml:space="preserve">
<g id="After_Effects" display="none">
	<circle display="inline" fill="#D0A3FD" cx="75" cy="75" r="75"/>
	<g display="inline" opacity="0.1">
		<path d="M146.8,96.6l-31.6-31.6c0,0-21,0.1-27.4,3.8c-0.8,0.5-1.4,1.2-1.9,2.2L62.7,47.8H48.9L30,101.5l48.4,48.4
			C110.8,148.5,137.9,126.5,146.8,96.6z"/>
	</g>
	<g display="inline">
		<path fill="#FFFFFF" d="M69.5,101.5l-3.9-12.7H46.1l-3.9,12.7H30l18.9-53.8h13.9l19,53.8H69.5z M62.9,79.2
			c-3.6-11.5-5.6-18.1-6.1-19.6c-0.5-1.5-0.8-2.7-1-3.6c-0.8,3.1-3.1,10.9-6.9,23.2H62.9z"/>
		<path fill="#FFFFFF" d="M103.1,102.2c-6.6,0-11.7-1.8-15.5-5.5c-3.7-3.6-5.6-8.8-5.6-15.5c0-6.9,1.7-12.2,5.1-15.9
			c3.4-3.7,8.2-5.6,14.2-5.6c5.8,0,10.3,1.6,13.5,4.9c3.2,3.3,4.8,7.8,4.8,13.7v5.4H93.4c0.1,3.2,1.1,5.7,2.8,7.4s4.2,2.7,7.4,2.7
			c2.5,0,4.8-0.3,7-0.8s4.5-1.3,6.9-2.5v8.6c-2,1-4,1.7-6.3,2.2C109,102,106.3,102.2,103.1,102.2z M101.5,67.7
			c-2.4,0-4.2,0.8-5.6,2.3c-1.3,1.5-2.1,3.6-2.3,6.4h15.7c0-2.8-0.8-4.9-2.2-6.4S103.9,67.7,101.5,67.7z"/>
	</g>
</g>
<g id="Photoshop" display="none">
	<circle display="inline" fill="#96CCF9" cx="75" cy="75" r="75"/>
	<g display="inline" opacity="0.1">
		<path d="M146.2,98.7L110.4,63c0,0-17.3,0-22.8,5.7L72.2,53.3c0,0-21.5,0-23.5,0.9s-9.6,47.4-9.6,47.4l47.6,47.6
			C114.6,144.7,137.4,124.9,146.2,98.7z"/>
	</g>
	<g display="inline">
		<path fill="#FFFFFF" d="M76.1,64.7c0,5.8-1.8,10.2-5.4,13.2c-3.6,3.1-8.7,4.6-15.4,4.6h-4.9v19H39.1V48h17.1
			c6.5,0,11.4,1.4,14.8,4.2C74.4,55,76.1,59.1,76.1,64.7z M50.5,73.2h3.7c3.5,0,6.1-0.7,7.8-2.1c1.7-1.4,2.6-3.4,2.6-6
			c0-2.7-0.7-4.6-2.2-5.9c-1.5-1.3-3.7-1.9-6.8-1.9h-5.2L50.5,73.2L50.5,73.2z"/>
		<path fill="#FFFFFF" d="M110.9,89.4c0,4.2-1.5,7.4-4.4,9.6c-2.9,2.2-7.3,3.3-13.1,3.3c-3,0-5.5-0.2-7.6-0.6
			c-2.1-0.4-4.1-1-5.9-1.8v-9.2c2.1,1,4.4,1.8,7,2.5c2.6,0.7,4.9,1,6.9,1c4.1,0,6.1-1.2,6.1-3.5c0-0.9-0.3-1.6-0.8-2.1
			c-0.5-0.6-1.5-1.2-2.8-1.9C95,85.9,93.2,85,91,84.1c-3.1-1.3-5.5-2.5-6.9-3.7c-1.5-1.1-2.6-2.4-3.2-3.9c-0.7-1.5-1-3.2-1-5.4
			c0-3.6,1.4-6.5,4.2-8.4c2.8-2,6.8-3,12-3c4.9,0,9.7,1.1,14.4,3.2l-3.4,8.1c-2.1-0.9-4-1.6-5.7-2.2c-1.8-0.6-3.6-0.8-5.5-0.8
			c-3.3,0-4.9,0.9-4.9,2.7c0,1,0.5,1.9,1.6,2.6c1.1,0.7,3.4,1.8,7,3.3c3.2,1.3,5.5,2.5,7,3.6c1.5,1.1,2.6,2.4,3.3,3.9
			C110.5,85.6,110.9,87.3,110.9,89.4z"/>
	</g>
</g>
<g id="Illustrator" display="none">
	<circle display="inline" fill="#FEBC54" cx="75" cy="75" r="75"/>
	<g display="inline">
		<path opacity="0.1" enable-background="new    " d="M148.5,89.8L106.8,48L97.4,56l6.6,6.6l3.7,19.8L75,49.7H60.8l-18.9,53.8
			L87.3,149C118.1,143.9,142.5,120.2,148.5,89.8z"/>
	</g>
	<g display="inline">
		<path fill="#FFFFFF" d="M81.4,103.5l-3.9-12.7H58l-3.9,12.7H41.9l18.9-53.8h13.9l19,53.8H81.4z M74.8,81.2
			c-3.6-11.5-5.6-18.1-6.1-19.6c-0.5-1.5-0.8-2.7-1-3.6c-0.8,3.1-3.1,10.9-6.9,23.2H74.8z"/>
		<path fill="#FFFFFF" d="M96,52c0-3.6,2-5.5,6.1-5.5s6.1,1.8,6.1,5.5c0,1.7-0.5,3.1-1.5,4c-1,1-2.5,1.4-4.6,1.4
			C98,57.5,96,55.6,96,52z M107.6,103.5H96.5V62.5h11.2V103.5z"/>
	</g>
</g>
<g id="Premiere" display="none">
	<circle display="inline" fill="#E289FC" cx="75" cy="75" r="75"/>
	<g display="inline" opacity="0.1">
		<path opacity="0.1" enable-background="new    " d="M146.7,97.1l-36.8-36.8l-12.1,6.5l-6.1-6.1l-8.5,2.9L73.2,53.5l-33.1-5.3v53.5
			L87.3,149C115.5,144.3,138.4,124,146.7,97.1z"/>
		<path d="M146.7,97.1l-36.8-36.8l-12.1,6.5l-6.1-6.1l-8.5,2.9L73.2,53.5l-33.1-5.3v53.5L87.3,149C115.5,144.3,138.4,124,146.7,97.1
			z"/>
	</g>
	<g display="inline">
		<path fill="#FFFFFF" d="M77.1,64.9c0,5.8-1.8,10.2-5.4,13.2c-3.6,3.1-8.7,4.6-15.4,4.6h-4.9v19H40.1V48.2h17.1
			c6.5,0,11.4,1.4,14.8,4.2C75.4,55.2,77.1,59.4,77.1,64.9z M51.4,73.4h3.7c3.5,0,6.1-0.7,7.8-2.1c1.7-1.4,2.6-3.4,2.6-6
			c0-2.7-0.7-4.6-2.2-5.9c-1.5-1.3-3.7-1.9-6.8-1.9h-5.2L51.4,73.4L51.4,73.4z"/>
		<path fill="#FFFFFF" d="M106.1,60.1c1.5,0,2.8,0.1,3.8,0.3l-0.8,10.5c-0.9-0.2-2-0.4-3.3-0.4c-3.6,0-6.3,0.9-8.3,2.7s-3,4.4-3,7.7
			v20.8H83.3V60.8h8.5l1.6,6.9H94c1.3-2.3,3-4.1,5.1-5.5C101.3,60.8,103.6,60.1,106.1,60.1z"/>
	</g>
</g>
<g id="Indesign" display="none">
	<circle display="inline" fill="#EB66AF" cx="75" cy="75" r="75"/>
	<g display="inline" opacity="0.1">
		<path d="M148.3,91.1l-44.9-44.9l-7.5,24.4l-15.6-3.1h-4.5L58,49.6H46.6v53.5l45,45C119.9,141.7,142.1,119.4,148.3,91.1z"/>
	</g>
	<g display="inline">
		<path fill="#FFFFFF" d="M46.6,103.1V49.6H58v53.5H46.6z"/>
		<path fill="#FFFFFF" d="M80.6,103.9c-4.8,0-8.6-1.9-11.3-5.6s-4.1-8.9-4.1-15.5c0-6.7,1.4-11.9,4.2-15.7c2.8-3.7,6.6-5.6,11.6-5.6
			c5.2,0,9.1,2,11.8,6H93c-0.6-3.1-0.8-5.8-0.8-8.2V46.1h11.2v57h-8.6l-2.2-5.3h-0.5C89.6,101.8,85.8,103.9,80.6,103.9z M84.5,95
			c2.9,0,4.9-0.8,6.3-2.5c1.3-1.7,2.1-4.5,2.2-8.5v-1.2c0-4.4-0.7-7.5-2-9.4c-1.4-1.9-3.6-2.9-6.6-2.9c-2.5,0-4.4,1.1-5.8,3.2
			c-1.4,2.1-2.1,5.2-2.1,9.2s0.7,7.1,2.1,9.1C79.9,94,81.9,95,84.5,95z"/>
	</g>
</g>
<g id="ProTools">
	<g>
		<path fill="#FFFFFF" d="M115.9,61.6C107.7,47.3,98.3,31,75,31S42.3,47.3,34.1,61.6C26.7,74.5,19,87.7,0.7,96.7L11.6,119
			c25.1-12.3,36-31.2,43.9-45C63.9,59.5,66.9,55.8,75,55.8c8.1,0,11.1,3.7,19.5,18.2c8,13.8,18.8,32.6,43.9,45l10.9-22.3
			C131,87.7,123.3,74.5,115.9,61.6z"/>
		<g>
			<path fill="#FFFFFF" d="M75,148.3c-40.4,0-73.3-32.9-73.3-73.3S34.6,1.7,75,1.7c40.4,0,73.3,32.9,73.3,73.3S115.4,148.3,75,148.3
				z M75,9.5C38.9,9.5,9.5,38.9,9.5,75c0,36.1,29.4,65.5,65.5,65.5s65.5-29.4,65.5-65.5C140.5,38.9,111.1,9.5,75,9.5z"/>
		</g>
	</g>
</g>
<g id="LogicPro" display="none">
	<circle display="inline" fill="#58616D" cx="75" cy="75" r="75"/>
	<g display="inline" opacity="0.1">
		<path d="M150,75c0-0.7,0-1.3,0-2l-47.5-47.5L30,36.2l10.7,88.2l25,25c3.1,0.4,6.2,0.6,9.3,0.6C116.4,150,150,116.4,150,75z"/>
	</g>
	<g display="inline">
		<g>
			<path fill="#FFFFFF" d="M40.7,124.4L30,36.2l72.5-10.6l17.5,86.1L40.7,124.4z M31.9,37.6l10.3,84.9l75.9-12.1l-16.8-82.9
				L31.9,37.6z"/>
		</g>
		<g>
			<path fill="#FFFFFF" d="M71.6,88.7C58,88.7,47,77.6,47,64S58,39.4,71.6,39.4S96.3,50.4,96.3,64S85.2,88.7,71.6,88.7z M71.6,54
				c-5.5,0-10,4.5-10,10s4.5,10,10,10s10-4.5,10-10C81.6,58.5,77.1,54,71.6,54z"/>
		</g>
		<polygon fill="#FFFFFF" points="57.7,97.8 95.5,91.8 98.1,106.9 59.9,113 		"/>
	</g>
</g>
<g id="FCP" display="none">
	<circle display="inline" fill="#C9C9C9" cx="75" cy="75" r="75"/>
	<g display="inline" opacity="0.1">
		<path d="M149.9,78.1l-44.6-44.6L30.6,60.3l0.6,1.9l9.6,47l2.9,7.8l33,33C116.3,149.1,148.3,117.5,149.9,78.1z"/>
	</g>
	<g display="inline">
		<path fill="#FFFFFF" d="M106.7,35.8c-0.9-2.9-3.9-4.5-6.8-3.7L33.9,52.3c-2.9,0.9-4.5,3.9-3.7,6.8l0.9,3.1l76.6-22.8L106.7,35.8z"
			/>
		<g>
			<path fill="#FFFFFF" d="M33.1,71.6l8.6,42.1c0.6,3,3.5,4.9,6.5,4.3l67.4-14.4c3-0.6,4.9-3.5,4.3-6.5l-8.5-41.6L33.1,71.6z
				 M115.7,99c0.1,0.5-0.2,1-0.7,1.1L47.2,114c-0.5,0.1-1-0.2-1.1-0.7l-7.7-37.4c-0.1-0.5,0.2-1,0.7-1.1L107,60.9
				c0.5-0.1,1,0.2,1.1,0.7L115.7,99z"/>
			<polygon fill="#FFFFFF" points="32.7,69.8 111,53.7 109.4,46.1 31.1,62.2 			"/>
		</g>
	</g>
</g>
<g id="Template" display="none">
	<circle display="inline" fill="#C99BF9" cx="75" cy="75" r="75"/>
	
		<text transform="matrix(1 0 0 1 29.9717 101.5137)" display="inline" fill="#FFFFFF" font-family="'ArialMT'" font-size="75px" letter-spacing="-3">Ae</text>
</g>
</svg>
